Obsidian/actions/24s/format-currency.svg

<svg height="24" viewBox="0 0 24 24" width="24" xmlns="http://www.w3.org/2000/svg"><path d="m6 .0390625v1.1328125c-.9772.1418-1.8092906.3971281-2.4628906.7988281-1.0105.6149-1.515625 1.5580782-1.515625 2.8300781-.0046 2.1953001 1.5575156 2.9199375 3.9785156 3.5859376v4.9902342c-1.1727-.099-2.2448531-.320687-3.3769531-.804687l-.6230469 1.357422c.56451.3013 1.3272625.562156 2.2890625.785156.5442.122 1.1112375.199906 1.7109375.253906v1.072266h1v-1.023438c.17.004.3141406.021484.4941406.021484.164-.001.3358594-.013484.5058594-.021484v1.021484h1v-1.11914c1.9967-.28485 3.979984-1.2023 3.958984-3.6875-.07-1.8300001-1.202984-2.5075626-3.958984-3.4765626v-4.953125c.90326.12074 2.002109.3722818 3.224609.9824218l.775391-1.5429687c-.551-.2955-1.831484-.7664063-2.646484-.9414063-.4340004-.0926-.886516-.1556187-1.353516-.1992187v-1.0625h-1v1.0136719c-.092-.0018-.1784844-.0136719-.2714844-.0136719-.257 0-.4875156.0203031-.7285156.0332031v-1.0332031zm1.4375 2.6484375c.15102.0008281.36234.0094501.5625.0175781v4.7011719c-.157-.053-.254875-.0914844-.421875-.1464844-.179-.044-.385125-.1081562-.578125-.1601562v-4.3964844c.14588-.00637.29158-.0136559.4375-.0136719zm-1.4375.1113281v3.9980469c-1.227-.4344-2.3570188-1.0931063-2.3242188-2.1914062-.0595999-1.0413 1.0044188-1.5908407 2.3242188-1.8066407zm1 5.8535157c.18387.0467899.3298244.0921149.5214844.140625.16101.04582.3173956.0973512.4785156.1445312v4.492188c-.14946.003099-.3113919.018788-.4511719.017578-.19148-.0018-.3646681-.013992-.5488281-.019532zm2 .5976562c1.2815.44854 2.319675 1.037206 2.296875 2.066406-.039 1.395-1.131875 1.880875-2.296875 2.046875z" fill="#bebebe" transform="translate(4 4)"/></svg>

<svg xmlns="http://www.w3.org/2000/svg" width="24" height="24" viewBox="0 0 24 24">
 <defs>
  <style id="current-color-scheme" type="text/css">
   .ColorScheme-Text { color:#bebebe; } .ColorScheme-Highlight { color:#4285f4; }
  </style>
 </defs>
 <path style="fill:currentColor" class="ColorScheme-Text" d="M 6 0.0390625 L 6 1.171875 C 5.0228 1.313675 4.1907094 1.5690031 3.5371094 1.9707031 C 2.5266094 2.5856031 2.0214844 3.5287813 2.0214844 4.8007812 C 2.0168844 6.9960813 3.579 7.7207187 6 8.3867188 L 6 13.376953 C 4.8273 13.277953 3.7551469 13.056266 2.6230469 12.572266 L 2 13.929688 C 2.56451 14.230988 3.3272625 14.491844 4.2890625 14.714844 C 4.8332625 14.836844 5.4003 14.91475 6 14.96875 L 6 16.041016 L 7 16.041016 L 7 15.017578 C 7.17 15.021578 7.3141406 15.039062 7.4941406 15.039062 C 7.6581406 15.038062 7.83 15.025578 8 15.017578 L 8 16.039062 L 9 16.039062 L 9 14.919922 C 10.9967 14.635072 12.979984 13.717622 12.958984 11.232422 C 12.888984 9.4024219 11.756 8.7248594 9 7.7558594 L 9 2.8027344 C 9.90326 2.9234744 11.002109 3.1750162 12.224609 3.7851562 L 13 2.2421875 C 12.449 1.9466875 11.168516 1.4757812 10.353516 1.3007812 C 9.9195156 1.2081812 9.467 1.1451625 9 1.1015625 L 9 0.0390625 L 8 0.0390625 L 8 1.0527344 C 7.908 1.0509344 7.8215156 1.0390625 7.7285156 1.0390625 C 7.4715156 1.0390625 7.241 1.0593656 7 1.0722656 L 7 0.0390625 L 6 0.0390625 z M 7.4375 2.6875 C 7.58852 2.6883281 7.79984 2.6969501 8 2.7050781 L 8 7.40625 C 7.843 7.35325 7.745125 7.3147656 7.578125 7.2597656 C 7.399125 7.2157656 7.193 7.1516094 7 7.0996094 L 7 2.703125 C 7.14588 2.696755 7.29158 2.6894691 7.4375 2.6894531 L 7.4375 2.6875 z M 6 2.7988281 L 6 6.796875 C 4.773 6.362475 3.6429812 5.7037687 3.6757812 4.6054688 C 3.6161813 3.5641688 4.6802 3.0146281 6 2.7988281 z M 7 8.6523438 C 7.18387 8.6991337 7.3298244 8.7444587 7.5214844 8.7929688 C 7.6824944 8.8387888 7.83888 8.89032 8 8.9375 L 8 13.429688 C 7.85054 13.432787 7.6886081 13.448476 7.5488281 13.447266 C 7.3573481 13.445466 7.18416 13.433274 7 13.427734 L 7 8.6523438 z M 9 9.25 C 10.2815 9.69854 11.319675 10.287206 11.296875 11.316406 C 11.257875 12.711406 10.165 13.197281 9 13.363281 L 9 9.25 z" transform="translate(4 4)"/>
</svg>
